X: 2
T: Here's to you
N: from Sacco & Vancetti
N: transposed, fingerings are messed up
C: Ennio Morricone
M: 4/4
Q:1/4=100
L: 1/8
K: F
|: A3 F G3 E | FEDE- E4 | A3 F G3 E | FEDG- G3 G |
c3 A B3 G | GABA- A3 F | A3 F G3 E | F2 E2 D4 :|

